X:33
T:Upton-on-Severn Stick Dance
M:6/8
L:1/8
Q:110
R:Jig
Z:Brian Martin
K:G
d|dBB BAG|AGA BGE|DGG GBd|edB A2d|!dBB BAG|AGA BGE|DGG GBd|AGF G2|]!
z|GBd {f}g3/2z/d|edc BAG|GBd {f}g3/2z/d|edB A3|\
GBd{f}g2d|edc Bcd|ege dBG|AGFG2:||
